src/icons/outline/metrics/sort-abc.svg

<svg width="24" height="24" viewBox="0 0 24 24" fill="none" xmlns="http://www.w3.org/2000/svg">
<g clip-path="url(#clip0_4883_245)">
<path d="M5.4526 1C5.88642 1.00012 6.23776 1.33586 6.23776 1.75V20.4395L8.56295 18.2197C8.86976 17.9269 9.36744 17.9269 9.67428 18.2197C9.98111 18.5126 9.98111 18.9874 9.67428 19.2803L6.00827 22.7803C5.85495 22.9265 5.65346 22.9999 5.4526 23C5.43904 23 5.42498 22.9997 5.41159 22.999C5.32 22.9946 5.23249 22.9753 5.15182 22.9434C5.05917 22.9068 4.97226 22.8522 4.89694 22.7803L1.22995 19.2803C0.923352 18.9874 0.923352 18.5126 1.22995 18.2197C1.53677 17.9268 2.03444 17.9269 2.34127 18.2197L4.66647 20.4395V1.75C4.66647 1.33579 5.01868 1 5.4526 1Z" fill="#3C3B44"/>
<path fill-rule="evenodd" clip-rule="evenodd" d="M17.8872 4.54883C18.742 4.54883 19.5016 5.07136 19.7719 5.8457L21.7993 11.6514C21.8039 11.6634 21.808 11.6761 21.812 11.6885L22.9594 14.9736C23.0967 15.3666 22.874 15.7919 22.4624 15.9229C22.0509 16.0536 21.6065 15.841 21.4692 15.4482L20.4946 12.6572H15.2807L14.3061 15.4482C14.1689 15.8411 13.7236 16.0538 13.312 15.9229C12.9005 15.7917 12.6787 15.3665 12.8159 14.9736L13.9643 11.6846C13.9675 11.6749 13.9705 11.6648 13.9741 11.6553L16.0034 5.8457C16.2737 5.07161 17.0323 4.54898 17.8872 4.54883ZM17.8872 6.04883C17.7088 6.04898 17.5501 6.15777 17.4936 6.31934L15.8051 11.1572H19.9702L18.2807 6.31934C18.2243 6.15793 18.0657 6.04883 17.8872 6.04883Z" fill="#3C3B44"/>
</g>
<defs>
<clipPath id="clip0_4883_245">
<rect width="24" height="24" fill="white"/>
</clipPath>
</defs>
</svg>

<svg xmlns="http://www.w3.org/2000/svg" width="24" height="24" fill="none" viewBox="0 0 24 24"><g fill="currentColor" clip-path="url(#a)"><path d="M5.453 1c.433 0 .785.336.785.75v18.69l2.325-2.22a.813.813 0 0 1 1.111 0 .726.726 0 0 1 0 1.06l-3.666 3.5a.8.8 0 0 1-.596.219.8.8 0 0 1-.515-.219l-3.667-3.5a.726.726 0 0 1 0-1.06.813.813 0 0 1 1.111 0l2.325 2.22V1.75c0-.414.353-.75.787-.75"/><path fill-rule="evenodd" d="M17.887 4.549c.855 0 1.615.522 1.885 1.297l2.027 5.805.013.037 1.147 3.286c.138.393-.085.818-.497.949-.411.13-.855-.082-.993-.475l-.974-2.79H15.28l-.975 2.79c-.137.393-.582.606-.994.475a.743.743 0 0 1-.496-.95l1.148-3.288.01-.03 2.03-5.81c.27-.773 1.028-1.296 1.883-1.296m0 1.5a.41.41 0 0 0-.393.27l-1.689 4.838h4.165L18.28 6.32a.41.41 0 0 0-.393-.27" clip-rule="evenodd"/></g><defs><clipPath id="a"><path fill="currentColor" d="M0 0h24v24H0z"/></clipPath></defs></svg>
